X: 7960
T:Tripping Upstairs
T:Sackows
R:Jig
O:Ireland
M:6/8
K:D
FAA GBB|Add fed|cBc ABc|dfe dBA|\
FAA GBB|Add fed|cdc ABc|dfe d2::
c|\
dBB fBB|fgf fed|cAA eAA|efe edc|\
dBB fBB|fgf fed|cdc ABc|dfe d2:|
